icon/fa/square-poll-horizontal.svg

<svg xmlns="http://www.w3.org/2000/svg" viewBox="0 0 448 512"><!--! Font Awesome Free 6.1.2 by @fontawesome - https://fontawesome.com License - https://fontawesome.com/license/free (Icons: CC BY 4.0, Fonts: SIL OFL 1.1, Code: MIT License) Copyright 2022 Fonticons, Inc.--><path d="M448 416c0 35.3-28.7 64-64 64H64c-35.35 0-64-28.7-64-64V96c0-35.35 28.65-64 64-64h320c35.3 0 64 28.65 64 64v320zM256 160c0-17.7-14.3-32-32-32h-96c-17.7 0-32 14.3-32 32s14.3 32 32 32h96c17.7 0 32-14.3 32-32zm-128 64c-17.7 0-32 14.3-32 32s14.3 32 32 32h192c17.7 0 32-14.3 32-32s-14.3-32-32-32H128zm64 128c0-17.7-14.3-32-32-32h-32c-17.7 0-32 14.3-32 32s14.3 32 32 32h32c17.7 0 32-14.3 32-32z"/></svg>

<svg xmlns="http://www.w3.org/2000/svg" viewBox="0 0 448 512" height="1em" width="1em">
<!--! Font Awesome Free 6.1.2 by @fontawesome - https://fontawesome.com License - https://fontawesome.com/license/free (Icons: CC BY 4.0, Fonts: SIL OFL 1.1, Code: MIT License) Copyright 2022 Fonticons, Inc.-->
  <path d="M448 416C448 451.3 419.3 480 384 480H64C28.65 480 0 451.3 0 416V96C0 60.65 28.65 32 64 32H384C419.3 32 448 60.65 448 96V416zM256 160C256 142.3 241.7 128 224 128H128C110.3 128 96 142.3 96 160C96 177.7 110.3 192 128 192H224C241.7 192 256 177.7 256 160zM128 224C110.3 224 96 238.3 96 256C96 273.7 110.3 288 128 288H320C337.7 288 352 273.7 352 256C352 238.3 337.7 224 320 224H128zM192 352C192 334.3 177.7 320 160 320H128C110.3 320 96 334.3 96 352C96 369.7 110.3 384 128 384H160C177.7 384 192 369.7 192 352z"/>
</svg>
